X: 27021
T: Miss Gordon Of Gight
R: reel
M: 4/4
K: Bminor
|:FBdB BfdB|EAcA ecAF|FBdB BfdB|1 EAcd cB B2:|2 EAcd cBBc||
dfaf gfed|cdef ecAc|dfaf gfed|cAec dBBc|
dfaf gfed|cdef ecAe|f>edc BcdB|EAcd cBB2||

